markets/SUI.svg

<svg width="42" height="42" viewBox="0 0 42 42" fill="none" xmlns="http://www.w3.org/2000/svg">
<g clip-path="url(#clip0_7277_55386)">
<circle cx="21" cy="21" r="21" fill="#4CA3FF"/>
<path fill-rule="evenodd" clip-rule="evenodd" d="M27.0027 18.4266C28.0455 19.7054 28.6683 21.3263 28.6683 23.088C28.6683 24.876 28.0264 26.5177 26.9554 27.8052L26.8632 27.9161L26.8388 27.7752C26.8179 27.6554 26.7935 27.5344 26.7651 27.4125C26.2291 25.1093 24.4827 23.1343 21.6084 21.5352C19.6675 20.4583 18.5565 19.1615 18.2648 17.6883C18.0764 16.7355 18.2164 15.7786 18.4871 14.959C18.7577 14.1396 19.1602 13.4531 19.5022 13.0398L20.6205 11.7024C20.8166 11.4679 21.1835 11.4679 21.3796 11.7024L27.0027 18.4266ZM28.7712 17.0907L21.277 8.12833C21.134 7.95722 20.866 7.95722 20.723 8.12833L13.2286 17.0903L13.2044 17.1204C11.8253 18.794 11 20.9209 11 23.2362C11 28.6285 15.4771 33 21 33C26.523 33 31 28.6285 31 23.2362C31 20.9209 30.1747 18.794 28.7956 17.1204L28.7712 17.0907ZM15.0218 18.3977L15.6924 17.5957L15.7127 17.7437C15.7287 17.8609 15.7482 17.9788 15.7712 18.0971C16.205 20.3226 17.7544 22.1783 20.3448 23.6156C22.5965 24.8689 23.9075 26.3101 24.2852 27.8907C24.4428 28.5504 24.471 29.1994 24.4027 29.7668L24.3985 29.802L24.366 29.8175C23.3497 30.303 22.2073 30.5755 20.9998 30.5755C16.7647 30.5755 13.3313 27.2234 13.3313 23.088C13.3313 21.3125 13.9642 19.6811 15.0218 18.3977Z" fill="white"/>
</g>
<defs>
<clipPath id="clip0_7277_55386">
<rect width="42" height="42" rx="21" fill="white"/>
</clipPath>
</defs>
</svg>

<svg xmlns="http://www.w3.org/2000/svg" width="42" height="42" fill="none"><g clip-path="url(#a)"><circle cx="21" cy="21" r="21" fill="#4CA3FF"/><path fill="#fff" fill-rule="evenodd" d="M27.003 18.427a7.35 7.35 0 0 1-.048 9.378l-.092.111-.024-.14c-.021-.12-.045-.242-.074-.363-.536-2.304-2.282-4.279-5.157-5.878-1.94-1.077-3.052-2.373-3.343-3.847-.189-.953-.049-1.91.222-2.729.27-.82.673-1.506 1.015-1.92l1.119-1.337a.497.497 0 0 1 .759 0l5.623 6.725Zm1.768-1.336-7.494-8.963a.363.363 0 0 0-.554 0l-7.494 8.962-.025.03A9.58 9.58 0 0 0 11 23.236C11 28.628 15.477 33 21 33s10-4.372 10-9.764a9.58 9.58 0 0 0-2.204-6.116l-.025-.03Zm-13.75 1.307.671-.802.02.148c.017.117.036.235.06.353.433 2.226 1.982 4.081 4.573 5.519 2.252 1.253 3.563 2.694 3.94 4.275.158.66.186 1.308.118 1.876l-.005.035-.032.015a7.79 7.79 0 0 1-3.366.759c-4.235 0-7.669-3.353-7.669-7.488 0-1.776.633-3.407 1.69-4.69Z" clip-rule="evenodd"/></g><defs><clipPath id="a"><rect width="42" height="42" fill="#fff" rx="21"/></clipPath></defs></svg>
